X:1
T:Title
%%score 1 { 2 | 3 }
L:1/8
Q:1/4=103
M:4/4
K:Eb
V:1 treble nm="Grand Piano, Soprano"
V:2 bass nm="Choir Pad, Bass"
V:3 bass 
V:1
 [EB]3 [EB] [Ec]2 [EB]2 | [EG]3 [EG] [EA]2 [EG]2 | E4 [DF]2 [DF]2 | [EG]2 [FA][EG] [DF]4 | %4
w: By~James~Ramsey~Murray * * *||||
 [EB]3 [EB] [Ec]2 [EB]2 | [EG]3 [EG] [EA]2 [EG]2 | [DB]4 [DA]2 [DF]2 | E6 z2 | %8
w: ||||
[M:3/4][Q:1/4=110] [Ge]2 [Bd]2 [Ac]2 | [Ac][GB] [EG]4 | [Ec]2 [Ed]2 [Ee]2 | [EB]4 z2 | %12
w: ||||
 [EG]2 [=EG]2 [EG]2 | [FB]2 [FA]2 [EG]2 | [DF]2 [FB]2 [FA]2 | [EG]4 z2 | [Ge]2 [Bd]2 [Ac]2 | %17
w: |||||
 [Ac][GB] [EG]4 | [_Gc]2 [Gd]2 [Ge]2 | [GB]4 z2 | [Ad]2 [Ac]2 [Fd]2 | [Ee]2 [GB]2 [EG]2 | %22
w: |||||
 [DB]2 [DA]2 [DF]2 | E6- | E2 z2 z2 |] %25
w: |||
V:2
 G,3 G, A,2 G,2 | B,3 B, C2 B,2 | B,4 B,2 B,2 | B,2 B,2 B,4 | G,3 G, A,2 G,2 | B,3 B, C2 B,2 | %6
 B,4 F,2 B,2 | G,6 z2 |[M:3/4] B,2 z2[K:treble] CD | E2 B,4 | A,2 B,2 C2 | G,4 z2 | B,2 C2 C2 | %13
 C2 C2[K:bass] =A,2 | B,2 B,2 B,2 | B,4 z2 | B,2 z2 CD | E2 B,4 | =A,2 A,2 A,2 | B,4 z2 | %20
 B,2 B,2 B,2 | B,2 E2 B,2 | B,2 F,2 A,2 | G,6- | G,2 z2 z2 |] %25
V:3
 E,3 E, E,2 E,2 | E,3 E, E,2 E,2 | G,,4 B,,2 B,,2 | E,2 D,E, B,,4 | E,3 E, E,2 E,2 | %5
 E,3 E, E,2 E,2 | B,,4 B,,2 B,,2 | E,6 z2 |[M:3/4] E,G, A,B, A,2 | E,2 E,4 | z2 A,2 A,,2 | E,4 z2 | %12
 E,2 C,2 C,2 | F,2 F,2 F,2 | B,,2 D,2 B,,2 | E,4 z2 | E,G, A,B, A,2 | E,2 E,4 | E,2 E,2 E,2 | %19
 E,4 z2 | z2 z2 A,2 | G,2 E,2 E,2 | B,,2 B,,2 B,,2 | E,6- | E,2 z2 z2 |] %25

